X: 164
P: For four or eight
M: 6/4
L: 1/4
K: G
[|\
a2a a2g | f2g a2d |\
e2e f>ef | g3- g2 |]\
cdc B>AB | A2A f(ef) |
g2d ed2 | B3 G>AB |\
c>dc B>AB | A2A f>ef |\
g2d ed2 | B3 G3 |]

